X:1
T:Title
%%score { ( 1 3 ) | ( 2 4 ) }
L:1/8
M:4/4
K:G
V:1 treble nm="Grand Piano"
V:3 treble 
V:2 treble 
V:4 treble 
V:1
 z4 z2[Q:1/4=100] GA | B2 B2 B2 AG | [EA]2 [EA]2 [EA]4 | F3 E D2 c2 | B3 A G2 GA | B2 B2 B2 AG | %6
 [EA]2 [EA]2 [EA]4 | F3 c B2 A2 |[M:3/4] [B,G]6 |[M:1/4] [GB][Ac] | %10
[M:4/4] [Bd][Bd][ce][DBd] [DAc]2 [DGB]2 | [DBd]2 [DAc]4 AB | c6 z2 | B6 GA | %14
 B2 B2 [DBd]2 [DAc][DGB] | [EGc]2 [EGc]2 [Ge]4 | [Gd]2 [Gc][GB] [Fc]2 [CDF]2 |[M:3/4] [B,DG]6 |] %18
V:2
 z4 z2 [G,B,D][G,CD] | [G,DG]2 [G,DG]2 [G,DG]2[K:bass] [G,CD][G,B,D] | [C,C]2 [C,C]2 [C,C]4 | %3
 [D,CD]3 [E,CD] [F,C]2 [F,A,D]2 | [G,D]3 [G,CD] [G,B,D]2 [G,B,D][G,CD] | %5
 [G,DG]2 [G,DG]2 [G,DG]2[K:bass] [G,CD][G,B,D] | [C,C]2 [C,C]2 [C,C]4 | %7
 [D,A,D]3 [D,A,D] [D,G,D]2 [D,F,C]2 |[M:3/4] [G,,G,]6 |[M:1/4] [G,D][G,D] | %10
[M:4/4] [G,D][G,D][G,D]G, G,2 G,2 | D,2 D,4[K:treble] FG | A6[K:bass] z2 | [G,DG]6 [G,B,D][G,CD] | %14
 [G,DG]2 [G,DG]2[K:bass] G,2 G,G, | C,2 C,2 [C,C]4 | [D,B,]2 [D,A,][D,G,] [D,A,]2 D,2 | %17
[M:3/4] G,,6 |] %18
V:3
 x8 | x8 | x8 | x8 | x8 | x8 | x8 | x8 |[M:3/4] x6 |[M:1/4] x2 |[M:4/4] x8 | x8 | %12
 z2 DD D[ce][Bd][Ac] | x8 | x8 | x8 | x8 |[M:3/4] x6 |] %18
V:4
 x8 | x6[K:bass] x2 | x8 | x8 | x8 | x6[K:bass] x2 | x8 | x8 |[M:3/4] x6 |[M:1/4] x2 |[M:4/4] x8 | %11
 x6[K:treble] x2 | z2[K:bass] D,D, D,[D,D][D,D][D,D] | x8 | x4[K:bass] x4 | x8 | x8 |[M:3/4] x6 |] %18

